!!!!SEGMENT: pl-cz--ii-154--002_maader-ludwik--salve-regina.krn
!!!cenid: 17xx:969
!!!COM: Maader, Ludwik
!!!COM-rismid: pe30020328
!!!CDT: <1794->1798
!!!CNT:
!!!OTL: Salve Regina
!!!PDT: 1786
!!!AGN: Sacred
!!!SMS-siglum: PL-CZ
!!!SMS-shelfmark: II-154
!!!SMS-shelfwork: 002 W
!!!SMS-variant:
!!!SMS-altvar:
!!!NIFC-rismid: 300000758
!!!URL-scan: http://repozytorium.nifc.pl/skany/pl-cz-nut--ii-154
!!!ONB-nifc: UWAGA: w okładce fragment innego utworu. Uwaga: Litaniae (Kyrie) i Salve Regina to osobne utwory
!!!key: C
**kern	**fba	**dynam	**kern	**dynam	**kern	**dynam	**kern	**text	**kern	**text	**kern	**text	**kern	**text
*	*	*	*group2	*	*group2	*	*group1	*	*group1	*	*group1	*	*group1	*
*part7	*part7	*part7	*part6	*part6	*part5	*part5	*part4	*part4	*part3	*part3	*part2	*part2	*part1	*part1
*staff7	*	*	*staff6	*	*staff5	*	*staff4	*staff4	*staff3	*staff3	*staff2	*staff2	*staff1	*staff1
*I"Organo	*	*	*I"Violino Secondo	*	*I"Violino Primo	*	*I"Basso	*	*I"Tenore	*	*I"Alto	*	*I"Canto	*
*I'org	*	*	*I'vl 2	*	*I'vl 1	*	*I'B	*	*I'T	*	*I'A	*	*I'S	*
*Iorgan	*	*	*Ivioln	*	*Ivioln	*	*Ibass	*	*Itenor	*	*Ialto	*	*Isoprn	*
*ICklav	*	*	*ICstr	*	*ICstr	*	*ICvox	*	*ICvox	*	*ICvox	*	*ICvox	*
*IGcont	*	*	*	*	*	*	*IGcoro	*	*IGcoro	*	*IGcoro	*	*IGcoro	*
*clefF4	*	*	*clefG2	*	*clefG2	*	*clefF4	*	*clefC4	*	*clefC3	*	*clefC1	*
*k[]	*	*	*k[]	*	*k[]	*	*k[]	*	*k[]	*	*k[]	*	*k[]	*
*C:	*	*	*C:	*	*C:	*	*C:	*	*C:	*	*C:	*	*C:	*
*M3/4	*	*	*M3/4	*	*M3/4	*	*M3/4	*	*M3/4	*	*M3/4	*	*M3/4	*
*all\left or middle or right	*	*	*all\left or middle or right	*	*all\left or middle or right	*	*all\left or middle or right	*	*all\left or middle or right	*	*all\left or middle or right	*	*all\left or middle or right	*
*2\right	*	*	*2\right	*	*2\right	*	*2\right	*	*2\right	*	*2\right	*	*2\right	*
=1	=1	=1	=1	=1	=1	=1	=1	=1	=1	=1	=1	=1	=1	=1
!	!	!	!LO:TX:a:i:t=moderato	!	!LO:TX:a:i:t=Tutti	!	!	!	!LO:TX:a:i:t=moderato	!	!LO:TX:a:i:t=modera&colon;	!	!LO:TX:a:i:t=moderato	!
!	!	!	!	!	!	!LO:DY:b:t=for.	!	!	!	!	!	!	!	!
4C/	.	.	4cc\	.	4ee\	f	4c\	Sal-	4G/	Sal-	4cc\	Sal-	4ee\	Sal-
4C/	.	.	4cc\	.	4ee\	.	4c\	-ve	4G/	-ve	4cc\	-ve	4ee\	-ve
4C/	.	.	4ee\	.	4gg\	.	4c\	Re-	4c\	Re-	4ee\	Re-	4gg\	Re-
=2	=2	=2	=2	=2	=2	=2	=2	=2	=2	=2	=2	=2	=2	=2
4D\	6	.	8ee\L	.	8gg\L	.	4d\	-gi-	4B\	-gi-	8ee\L	-gi-	8gg\L	-gi-
.	.	.	8dd\J	.	8ff\J	.	.	.	.	.	8dd\J	.	8ff\J	.
2D\	.	.	2dd\	.	2ff\	.	2d\	-na	2B\	-na	2dd\	-na	2ff\	-na
=3	=3	=3	=3	=3	=3	=3	=3	=3	=3	=3	=3	=3	=3	=3
!	!	!	!	!	!LO:TX:a:i:t=Solo	!	!	!	!	!	!	!	!	!
!	!	!LO:DY:b:t=pia&colon;	!	!	!	!	!	!	!	!	!	!	!	!
4BB/	.	p	2.r	.	16ff\LL	.	2.r	.	2.r	.	2.r	.	2.r	.
.	.	.	.	.	16dd\	.	.	.	.	.	.	.	.	.
.	.	.	.	.	16ee\	.	.	.	.	.	.	.	.	.
.	.	.	.	.	16ff\JJ	.	.	.	.	.	.	.	.	.
4r	.	.	.	.	16gg\LL	.	.	.	.	.	.	.	.	.
.	.	.	.	.	16aa\	.	.	.	.	.	.	.	.	.
.	.	.	.	.	16bb\	.	.	.	.	.	.	.	.	.
.	.	.	.	.	16ccc\JJ	.	.	.	.	.	.	.	.	.
4r	.	.	.	.	16ddd\LL	.	.	.	.	.	.	.	.	.
.	.	.	.	.	16ccc\	.	.	.	.	.	.	.	.	.
.	.	.	.	.	16ddd\	.	.	.	.	.	.	.	.	.
.	.	.	.	.	16eee\JJ	.	.	.	.	.	.	.	.	.
=4	=4	=4	=4	=4	=4	=4	=4	=4	=4	=4	=4	=4	=4	=4
2.r	.	.	2.r	.	8fff\L	.	2.r	.	2.r	.	2.r	.	2.r	.
.	.	.	.	.	8eee\	.	.	.	.	.	.	.	.	.
.	.	.	.	.	8ddd\	.	.	.	.	.	.	.	.	.
.	.	.	.	.	8ccc\	.	.	.	.	.	.	.	.	.
.	.	.	.	.	8bb\	.	.	.	.	.	.	.	.	.
.	.	.	.	.	8aa\J	.	.	.	.	.	.	.	.	.
=5	=5	=5	=5	=5	=5	=5	=5	=5	=5	=5	=5	=5	=5	=5
!	!	!	!	!	!LO:LB:g=original	!	!	!	!	!	!	!	!	!
2.r	.	.	2.r	.	8gg'\L	.	2.r	.	2.r	.	2.r	.	2.r	.
.	.	.	.	.	8ff'\	.	.	.	.	.	.	.	.	.
.	.	.	.	.	8ee'\	.	.	.	.	.	.	.	.	.
.	.	.	.	.	8dd'\	.	.	.	.	.	.	.	.	.
.	.	.	.	.	8cc'\	.	.	.	.	.	.	.	.	.
.	.	.	.	.	8b'\J	.	.	.	.	.	.	.	.	.
=6	=6	=6	=6	=6	=6	=6	=6	=6	=6	=6	=6	=6	=6	=6
2.r	.	.	2.r	.	8a'/L	.	2.r	.	2.r	.	2.r	.	2.r	.
.	.	.	.	.	8g'/	.	.	.	.	.	.	.	.	.
.	.	.	.	.	8f'/	.	.	.	.	.	.	.	.	.
.	.	.	.	.	8e'/	.	.	.	.	.	.	.	.	.
.	.	.	.	.	8d'/	.	.	.	.	.	.	.	.	.
.	.	.	.	.	8c'/J	.	.	.	.	.	.	.	.	.
=7	=7	=7	=7	=7	=7	=7	=7	=7	=7	=7	=7	=7	=7	=7
!	!	!LO:DY:b:t=forte	!	!	!	!	!	!	!	!	!	!	!	!
4G\	.	f	4g/	.	4B'/	.	4G\	Ma-	4B\	Ma-	4g\	Ma-	4dd\	Ma-
!	!	!	!	!	!LO:TX:a:i:t=Tutti	!	!	!	!	!	!	!	!	!
!	!	!	!	!	!	!LO:DY:b:t=for.	!	!	!	!	!	!	!	!
4G\	.	.	8b\L	.	8dd\L	f	8G\	-ter	8G\	-ter	8b\	-ter	8dd\	-ter
.	.	.	8b\	.	8dd\	.	8G\	mi-	8G\	mi-	8b\	mi-	8dd\	mi-
4B\	.	.	8dd\	.	8ff\	.	8B\	-se-	8G\	-se-	8dd\	-se-	8ff\	-se-
.	.	.	8dd\J	.	8ff\J	.	8B\	-ri-	8G\	-ri-	8dd\	-ri-	8ff\	-ri-
=8	=8	=8	=8	=8	=8	=8	=8	=8	=8	=8	=8	=8	=8	=8
4c\	.	.	8dd\L	.	8ff\L	.	8c\	-cor-	8G/	-cor-	8dd\	-cor-	8ff\	-cor-
.	.	.	8cc\J	.	8ee\J	.	8C/	-di-	8G/	-di-	8cc\	-di-	8ee\	-di-
4C/	.	.	2cc\	.	2ee\	.	2C/	-ae	2G/	-ae	2cc\	-ae	2ee\	-ae
4C/	.	.	.	.	.	.	.	.	.	.	.	.	.	.
=9	=9	=9	=9	=9	=9	=9	=9	=9	=9	=9	=9	=9	=9	=9
!	!	!	!	!	!LO:TX:t=P:problem:mixed beam	!	!	!	!	!	!	!	!	!
!	!	!	!LO:LB:g=original	!	!LO:TX:a:i:t=Solo	!	!	!	!	!	!	!	!	!
!	!	!LO:DY:b:t=piano	!	!	!	!	!	!	!	!	!	!	!	!
4E\	.	p	2.r	.	8cc\L	.	2.r	.	2.r	.	2.r	.	2.r	.
.	.	.	.	.	8c/	.	.	.	.	.	.	.	.	.
4C/	.	.	.	.	8ee\	.	.	.	.	.	.	.	.	.
.	.	.	.	.	8e/	.	.	.	.	.	.	.	.	.
8BB/L	.	.	.	.	8gg\	.	.	.	.	.	.	.	.	.
8D/J	.	.	.	.	8g/J	.	.	.	.	.	.	.	.	.
=10	=10	=10	=10	=10	=10	=10	=10	=10	=10	=10	=10	=10	=10	=10
4E\	.	.	2.r	.	8ccc\L	.	2.r	.	2.r	.	2.r	.	2.r	.
.	.	.	.	.	8cc\J	.	.	.	.	.	.	.	.	.
8r	.	.	.	.	16gg\LL	.	.	.	.	.	.	.	.	.
.	.	.	.	.	16ee\	.	.	.	.	.	.	.	.	.
8F\	.	.	.	.	16cc\	.	.	.	.	.	.	.	.	.
.	.	.	.	.	16b\JJ	.	.	.	.	.	.	.	.	.
!	!	!	!	!	!LO:TX:t=P:problem:mixed beam	!	!	!	!	!	!	!	!	!
4E\	.	.	.	.	8cc\L	.	.	.	.	.	.	.	.	.
.	.	.	.	.	8c/J	.	.	.	.	.	.	.	.	.
=11	=11	=11	=11	=11	=11	=11	=11	=11	=11	=11	=11	=11	=11	=11
!LO:LB:g=original	!	!	!	!	!LO:LB:g=original	!	!	!	!	!	!	!	!	!
4E\	.	.	2.r	.	8ccc\L	.	2.r	.	2.r	.	2.r	.	2.r	.
.	.	.	.	.	8cc\J	.	.	.	.	.	.	.	.	.
8r	.	.	.	.	16gg\LL	.	.	.	.	.	.	.	.	.
.	.	.	.	.	16ee\	.	.	.	.	.	.	.	.	.
8F\	.	.	.	.	16cc\	.	.	.	.	.	.	.	.	.
.	.	.	.	.	16b\JJ	.	.	.	.	.	.	.	.	.
!	!	!	!	!	!LO:TX:t=P:problem:mixed beam	!	!	!	!	!	!	!	!	!
4E\	.	.	.	.	8cc\L	.	.	.	.	.	.	.	.	.
.	.	.	.	.	8c/J	.	.	.	.	.	.	.	.	.
=12	=12	=12	=12	=12	=12	=12	=12	=12	=12	=12	=12	=12	=12	=12
4BB/	.	.	2.r	.	16ddd\LL	.	2.r	.	2.r	.	2.r	.	2.r	.
.	.	.	.	.	16bb\	.	.	.	.	.	.	.	.	.
.	.	.	.	.	16gg\	.	.	.	.	.	.	.	.	.
.	.	.	.	.	16ff#X\JJ	.	.	.	.	.	.	.	.	.
4r	.	.	.	.	16gg\LL	.	.	.	.	.	.	.	.	.
.	.	.	.	.	16ff#\	.	.	.	.	.	.	.	.	.
.	.	.	.	.	16gg\	.	.	.	.	.	.	.	.	.
.	.	.	.	.	16ff#\JJ	.	.	.	.	.	.	.	.	.
8r	.	.	.	.	16gg\LL	.	.	.	.	.	.	.	.	.
.	.	.	.	.	16ffn\	.	.	.	.	.	.	.	.	.
8F\	.	.	.	.	16dd\	.	.	.	.	.	.	.	.	.
.	.	.	.	.	16b\JJ	.	.	.	.	.	.	.	.	.
=13	=13	=13	=13	=13	=13	=13	=13	=13	=13	=13	=13	=13	=13	=13
!	!	!	!	!	!LO:TX:t=P:problem:mixed beam	!	!	!	!	!	!	!	!	!
4E\	.	.	2.r	.	8cc\L	.	2.r	.	2.r	.	2.r	.	2.r	.
.	.	.	.	.	8c/J	.	.	.	.	.	.	.	.	.
4E\	.	.	.	.	4c/	.	.	.	.	.	.	.	.	.
16G'\LL	.	.	.	.	4r	.	.	.	.	.	.	.	.	.
16F'\	.	.	.	.	.	.	.	.	.	.	.	.	.	.
16E'\	.	.	.	.	.	.	.	.	.	.	.	.	.	.
16D'\JJ	.	.	.	.	.	.	.	.	.	.	.	.	.	.
=14	=14	=14	=14	=14	=14	=14	=14	=14	=14	=14	=14	=14	=14	=14
*	*	*	*^	*	*^	*	*	*	*	*	*	*	*	*
!LO:TX:t=P:problem:mixed beam	!	!	!	!	!	!	!	!	!	!	!	!	!	!	!LO:LB:g=original	!
!	!	!	!	!	!	!LO:TX:i:t=Tutti	!	!	!LO:LB:g=original	!	!LO:LB:g=original	!	!LO:LB:g=original	!	!	!
!	!	!	!	!	!	!	!	!LO:DY:b:t=forte	!	!	!	!	!	!	!	!
!	!	!LO:DY:b:t=for.	!	!	!	!	!	!	!	!	!	!	!	!	!	!
8C/L	.	f	2.gg/	4ee\	.	2.gg/	4ee\	f	4c\	Vi-	4c\	Vi-	4g\	Vi-	4ee\	Vi-
8c\J	3	.	.	.	.	.	.	.	.	.	.	.	.	.	.	.
4B\	3	.	.	4dd\	.	.	4dd\	.	4B\	-ta	4B\	-ta	4g\	-ta	4dd\	-ta
4c\	3	.	.	4ee\	.	.	4ee\	.	4c\	dul-	4c\	dul-	4g\	dul-	4ee\	dul-
=15	=15	=15	=15	=15	=15	=15	=15	=15	=15	=15	=15	=15	=15	=15	=15	=15
8d\L	.	.	2.gg/	8ff\L	.	2.gg/	8ff\L	.	8d\L	-ce-	8d\L	-ce-	4g\	-ce-	8ff\L	-ce-
8c\J	.	.	.	8ee\J	.	.	8ee\J	.	8c\J	.	8c\J	.	.	.	8ee\J	.
4d\	.	.	.	2ff\	.	.	2ff\	.	2d\	-do	2d\	-do	2g\	-do	2ff\	-do
4D\	.	.	.	.	.	.	.	.	.	.	.	.	.	.	.	.
=16	=16	=16	=16	=16	=16	=16	=16	=16	=16	=16	=16	=16	=16	=16	=16	=16
4B\	.	.	2.gg/	4dd\	.	2.gg/	4dd\	.	8B\	et	8B\	et	8g\	et	8dd\	et
.	.	.	.	.	.	.	.	.	8B\	Spes	8B\	Spes	8g\	Spes	8dd\	Spes
4A\	.	.	.	4cc\	.	.	4cc\	.	4A\	no-	4A\	no-	4g\	no-	4cc\	no-
4B\	.	.	.	4dd\	.	.	4dd\	.	4B\	-stra	4B\	-stra	4g\	-stra	4dd\	-stra
=17	=17	=17	=17	=17	=17	=17	=17	=17	=17	=17	=17	=17	=17	=17	=17	=17
!	!	!	!	!	!	!LO:LB:g=original	!LO:LB:g=original	!	!	!	!	!	!	!	!	!
8c\L	.	.	2.gg/	8ee\L	.	2.gg/	8ee\L	.	8c\L	Sal-	8c\L	Sal-	4g\	Sal-	8ee\L	Sal-
8B\J	.	.	.	8dd\J	.	.	8dd\J	.	8B\J	.	8B\J	.	.	.	8dd\J	.
4c\	.	.	.	2ee\	.	.	2ee\	.	2c\	-ve	2c\	-ve	2g\	-ve	2ee\	-ve
4C/	.	.	.	.	.	.	.	.	.	.	.	.	.	.	.	.
=18	=18	=18	=18	=18	=18	=18	=18	=18	=18	=18	=18	=18	=18	=18	=18	=18
4C/	.	.	4ee/	2.g\	.	4ee/	2.g\	.	8C/	E-	8e\	E-	4g\	ad	4cc\	ad
.	.	.	.	.	.	.	.	.	8C/	-ja	8e\	-ja	.	.	.	.
4BB/	.	.	4dd/	.	.	4dd/	.	.	8BB/	er-	8d\	er-	4g\	te	4b\	te
.	.	.	.	.	.	.	.	.	8BB/	-go	8d\	-go	.	.	.	.
4C/	.	.	4ee/	.	.	4ee/	.	.	8C/	ad-	8e\	ad-	4g\	Cla-	4cc\	Cla-
.	.	.	.	.	.	.	.	.	8C/	-Vo-	8e\	-vo-	.	.	.	.
=19	=19	=19	=19	=19	=19	=19	=19	=19	=19	=19	=19	=19	=19	=19	=19	=19
!	!	!	!	!	!	!	!	!	!	!	!LO:LB:g=original	!	!	!	!	!
8D/L	.	.	8ff/L	2.g\	.	8ff/L	2.g\	.	8D/L	-ca-	8f\L	-ca-	4g\	-ma-	8dd\	-ma-
8C/J	.	.	8ee/J	.	.	8ee/J	.	.	8C/J	.	8e\J	.	.	.	8cc\	.
4D/	.	.	2ff/	.	.	2ff/	.	.	2D/	-ta	2f\	-ta	2g\	-mus	2dd\	-mus
4DD/	.	.	.	.	.	.	.	.	.	.	.	.	.	.	.	.
=20	=20	=20	=20	=20	=20	=20	=20	=20	=20	=20	=20	=20	=20	=20	=20	=20
!	!	!	!	!	!	!	!	!	!	!	!	!	!	!	!LO:LB:g=original	!
!LO:LB:g=original	!	!	!LO:LB:g=original	!LO:LB:g=original	!	!	!	!	!LO:LB:g=original	!	!	!	!LO:LB:g=original	!	!	!
4BB/	.	.	4dd/	2.g\	.	4dd/	2.g\	.	8BB/	Ad-	8d\	ad-	4g\	E-	4b\	E-
.	.	.	.	.	.	.	.	.	8BB/	-vo-	8d\	-Vo-	.	.	.	.
4AA/	.	.	4cc/	.	.	4cc/	.	.	4AA/	-ca-	4c\	-ca-	8g\	-xu-	8a\	-xu-
.	.	.	.	.	.	.	.	.	.	.	.	.	8g\	-les	8a\	-les
4BB/	.	.	4dd/	.	.	4dd/	.	.	4BB/	-ta	4d\	-ta	8g\	fi-	8b\	fi-
.	.	.	.	.	.	.	.	.	.	.	.	.	16g\	-li-	16b\	-li-
.	.	.	.	.	.	.	.	.	.	.	.	.	16g\	-i	16b\	-j
=21	=21	=21	=21	=21	=21	=21	=21	=21	=21	=21	=21	=21	=21	=21	=21	=21
8C/L	.	.	8ee/L	2.g\	.	8ee/L	2.g\	.	8C/L	no-	8e\L	no-	4g\	E-	8cc\L	E-
8BB/J	.	.	8dd/J	.	.	8dd/J	.	.	8BB/J	.	8d\J	.	.	.	8b\J	.
4C/	.	.	2ee/	.	.	2ee/	.	.	2C/	-stra	2e\	-stra	2g\	-vae	2cc\	-vae
4CC/	.	.	.	.	.	.	.	.	.	.	.	.	.	.	.	.
*	*	*	*v	*v	*	*	*	*	*	*	*	*	*	*	*	*
*	*	*	*	*	*v	*v	*	*	*	*	*	*	*	*	*
=22	=22	=22	=22	=22	=22	=22	=22	=22	=22	=22	=22	=22	=22	=22
*tremolo	*	*	*	*	*	*	*	*	*	*	*	*	*	*
*	*	*	*tremolo	*	*	*	*	*	*	*	*	*	*	*
8E\L	.	.	8cc\L	.	16cc\LL	.	8E\	il-	8G/	il-	4cc\	ad	4cc\	ad
.	.	.	.	.	16dd\	.	.	.	.	.	.	.	.	.
8E\	.	.	8cc\	.	16ee\	.	8E\	-los	8G/	-los	.	.	.	.
.	.	.	.	.	16dd\JJ	.	.	.	.	.	.	.	.	.
8E\	.	.	8cc\	.	8cc\L	.	4E\	to-	8G/	tu-	4cc\	te	8cc\L	te
8E\	.	.	8cc\	.	8gg\	.	.	.	8G/	-os	.	.	8gg\J	.
8E\	.	.	8cc\	.	8ff\	.	8E\	-os	4G/	mi-	8cc\	sus-	8ff\	Su-
8E\J	.	.	8cc\J	.	8ee\J	.	8E\	mi-	.	.	8cc\	-pi-	8ee\	-spi-
=23	=23	=23	=23	=23	=23	=23	=23	=23	=23	=23	=23	=23	=23	=23
8F\L	.	.	8cc\L	.	8ee\L	.	8F\	-se-	8A\	-se-	4cc\	-ra-	8ee\L	-ra-
8F\	.	.	8cc\	.	8dd\J	.	8F\	-ri-	8A\	-ri-	.	.	8dd\J	.
8F\	.	.	8cc\	.	2dd\	.	4F\	-cor-	8A\	-cor-	4cc\	-mus	4dd\	-mus
8F\	.	.	8cc\	.	.	.	.	.	8A\	-des	.	.	.	.
8F\	.	.	8cc\	.	.	.	4F\	-des	8A\	oc-	4cc\	ge-	4dd\	ge-
8F\J	.	.	8cc\J	.	.	.	.	.	8A\	-cu-	.	.	.	.
*	*	*	*Xtremolo	*	*	*	*	*	*	*	*	*	*	*
=24	=24	=24	=24	=24	=24	=24	=24	=24	=24	=24	=24	=24	=24	=24
!	!	!	!	!	!LO:LB:g=original	!	!	!	!LO:LB:g=original	!	!	!	!LO:TX:t=P:problem:8 poprawiona na 16	!
8G\L	.	.	16b\LL	.	16dd\LL	.	8G\	oc-	8B\	-los	4b\	-men-	4dd\	-men-
.	.	.	16cc\	.	16ee\	.	.	.	.	.	.	.	.	.
8G\	.	.	16dd\	.	16ff\	.	8G\	-cu-	8B\	ad	.	.	.	.
.	.	.	16cc\JJ	.	16ee\JJ	.	.	.	.	.	.	.	.	.
8G\	.	.	8b\L	.	8dd\L	.	8G\	-los	8B\	nos	4g\	-tes	8dd\L	-tes
8G\	.	.	8ff\	.	8aa\	.	8G\	ad	8f\	con-	.	.	8aa\J	.
8G\	.	.	8ee\	.	8gg\	.	8G\	nos	8e\L	-ver-	4g\	et	8gg\L	et
8G\J	.	.	8dd\J	.	8ff\J	.	8G\	con-	8d\J	.	.	.	8ff\J	.
*Xtremolo	*	*	*	*	*	*	*	*	*	*	*	*	*	*
=25	=25	=25	=25	=25	=25	=25	=25	=25	=25	=25	=25	=25	=25	=25
!	!	!	!	!	!	!	!	!	!	!	!	!	!LO:LB:g=original	!
!	!	!	!	!	!	!	!LO:LB:g=original	!	!	!	!LO:LB:g=original	!	!	!
4c\	.	.	8dd\L	.	8ff\L	.	4c\	-ver-	2.e\	-te	4g\	flen-	8ff\L	flen-
.	.	.	8cc\J	.	8ee\J	.	.	.	.	.	.	.	8ee\J	.
4C/	.	.	2cc\	.	2ee\	.	4C/	-te	.	.	2g\	-tes	2ee\	-tes
4r	.	.	.	.	.	.	4r	.	.	.	.	.	.	.
=26	=26	=26	=26	=26	=26	=26	=26	=26	=26	=26	=26	=26	=26	=26
*	*	*	*tremolo	*	*	*	*	*	*	*	*	*	*	*
4r	.	.	8cc\L	.	16cc\LL	.	4E\	et	4e\	et	8cc\	in	8gg\	in
.	.	.	.	.	16dd\	.	.	.	.	.	.	.	.	.
.	.	.	8cc\	.	16ee\	.	.	.	.	.	8cc\	hac	8gg\	hac
.	.	.	.	.	16dd\JJ	.	.	.	.	.	.	.	.	.
4E\	.	.	8cc\	.	8cc\L	.	8E\	Je-	8e\	Je-	8cc\	la-	8gg\	la-
.	.	.	8cc\	.	8bb-X\	.	8E\	-sum	8e\	-su(m)	8cc\	-chry-	8gg\	-chrÿ-
4E\	.	.	8cc\	.	8bb-\	.	8E\	be-	8g\	be-	8cc\	-ma-	8bb-X\	-ma-
.	.	.	8cc\J	.	8bb-\J	.	8E\	-ne-	8g\	-ne-	8cc\	-rum	8bb-\	-rum
=27	=27	=27	=27	=27	=27	=27	=27	=27	=27	=27	=27	=27	=27	=27
.	.	.	.	.	8qqgg#X/	.	.	.	.	.	.	.	8qqgg#X/	.
4F\	.	.	8cc\L	.	4aa\	.	4F\	-dic-	4f\	-dic-	4cc\	Val-	4aa\	Val-
.	.	.	8cc\	.	.	.	.	.	.	.	.	.	.	.
4F\	.	.	8cc\	.	4aa\	.	4F\	-tum	4f\	-tum	4cc\	-le	4aa\	-le
.	.	.	8cc\J	.	.	.	.	.	.	.	.	.	.	.
*	*	*	*Xtremolo	*	*	*	*	*	*	*	*	*	*	*
4r	.	.	16ee\LL	.	16ggn\LL	.	4r	.	4r	.	4r	.	4r	.
.	.	.	16dd\	.	16ff\	.	.	.	.	.	.	.	.	.
.	.	.	16cc\	.	16ee\	.	.	.	.	.	.	.	.	.
.	.	.	16b\JJ	.	16dd\JJ	.	.	.	.	.	.	.	.	.
=28	=28	=28	=28	=28	=28	=28	=28	=28	=28	=28	=28	=28	=28	=28
*	*	*	*	*	*	*	*	*	*	*	*	*	*	*ij
!	!	!	!	!	!	!	!	!	!LO:TX:t=P:problem:jeden skreślony takt	!	!	!	!	!
8E\L	.	.	4cc\	.	8cc\L	.	8E\	fru-	8G/	fru-	[<4cc\	Val-	8cc\L	Val-
8F\J	.	.	.	.	8dd\J	.	8F\	-ctum	8A/	-ctu(m)	.	.	8dd\J	.
!	!	!	!	!	!LO:TX:t=t	!	!	!	!	!	!	!	!	!
4G\	.	.	4cc\	.	2dd\	.	8G\	ven-	8G/	Ven-	4cc\]	.	2dd\	-le
*	*	*	*	*	*	*	*	*	*	*	*	*	*	*Xij
.	.	.	.	.	.	.	8G\	-tris	8G/	-tris	.	.	.	.
4GG/	.	.	4b\	.	.	.	4GG/	tu-	8G/	tu-	4b\	-le	.	.
.	.	.	.	.	.	.	.	.	16G/	-i	.	.	.	.
.	.	.	.	.	.	.	.	.	16G/	no-	.	.	.	.
=29	=29	=29	=29	=29	=29	=29	=29	=29	=29	=29	=29	=29	=29	=29
*	*	*	*tremolo	*	*	*	*	*	*	*	*	*	*	*
4C\	.	.	8cc\L	.	16cc\LL	.	8C/	-i	8G/	-bis	8cc\	in	8ee\	in
.	.	.	.	.	16dd\	.	.	.	.	.	.	.	.	.
.	.	.	8cc\	.	16ee\	.	8C/	no-	8G/	post	8cc\	hac	8ee\	hac
.	.	.	.	.	16dd\JJ	.	.	.	.	.	.	.	.	.
!	!	!	!	!	!	!	!	!	!	!	!LO:LB:g=original	!	!	!
4E\	.	.	8cc\	.	8cc\L	.	8E\	-bis	8e\	hoc	8cc\	la-	8gg\	la-
.	.	.	8cc\	.	8bb-X\	.	8E\	post	8e\	ex-	8cc\	-chrÿ-	8gg\	-chrÿ-
4E\	.	.	8cc\	.	8bb-\	.	8E\	hoc	8g\	-ti-	8cc\	-ma-	8bb-X\	-ma-
.	.	.	8cc\J	.	8bb-\J	.	8E\	Ex-	8g\	-li-	8cc\	-ru(m)	8bb-\	-rum
*	*	*	*Xtremolo	*	*	*	*	*	*	*	*	*	*	*
=30	=30	=30	=30	=30	=30	=30	=30	=30	=30	=30	=30	=30	=30	=30
!	!	!	!	!	!	!	!	!	!	!	!	!	!LO:LB:g=original	!
!	!	!	!	!	!LO:LB:g=original	!	!LO:LB:g=original	!	!	!	!	!	!	!
.	.	.	.	.	8qqgg#X/	.	.	.	.	.	.	.	8qqgg#X/	.
4F\	.	.	4cc\	.	4aa\	.	8F\	-i-	4f\	-um	4cc\	Val-	4aa\	Val-
.	.	.	.	.	.	.	8F\	-li-	.	.	.	.	.	.
4F\	.	.	8cc\L	.	8aa\L	.	4F\	-um	4r	.	8cc\	-le	8aa\	-le
.	.	.	16aa\L	.	16ccc\L	.	.	.	.	.	8r	.	8r	.
.	.	.	16gg\JJ	.	16bb\JJ	.	.	.	.	.	.	.	.	.
.	.	.	8qqbb/	.	8qqddd/	.	.	.	.	.	.	.	.	.
4r	.	.	8aa\L	.	8ccc\L	.	4r	.	4r	.	4r	.	4r	.
.	.	.	16gg\L	.	16bb\L	.	.	.	.	.	.	.	.	.
.	.	.	16ff\JJ	.	16aa\JJ	.	.	.	.	.	.	.	.	.
=31	=31	=31	=31	=31	=31	=31	=31	=31	=31	=31	=31	=31	=31	=31
!	!	!	!	!	!	!	!	!	!LO:LB:g=original	!	!	!	!	!
8E\L	.	.	16ee\LL	.	16gg\LL	.	8E\L	o-	4r	.	4r	.	4r	.
.	.	.	16ff\	.	16aa\	.	.	.	.	.	.	.	.	.
8F\J	.	.	16ee\	.	16gg\	.	8F\J	.	.	.	.	.	.	.
.	.	.	16dd\JJ	.	16ff\JJ	.	.	.	.	.	.	.	.	.
*	*	*	*	*	*	*	*	*	*	*	*	*ij	*	*ij
4G\	.	.	4cc\	.	4ee\	.	4G\	-Sten-	4g\	O-	4cc\	Val-	4ee\	Val-
4GG/	.	.	4b\	.	4dd\	.	4GG/	.	4G/	-Sten-	4b\	.	4dd\	.
=32	=32	=32	=32	=32	=32	=32	=32	=32	=32	=32	=32	=32	=32	=32
!LO:LB:g=original	!	!	!LO:LB:g=original	!	!	!	!	!	!	!	!	!	!	!
2C/	.	.	(16e/LL	.	(16ee\LL	.	2C/	-de	4G/	-de	4cc\	-le	4ee\	-le
.	.	.	16f/	.	16ff\	.	.	.	.	.	.	.	.	.
.	.	.	16g/	.	16gg\	.	.	.	.	.	.	.	.	.
.	.	.	16a/JJ)	.	16aa\JJ)	.	.	.	.	.	.	.	.	.
.	.	.	8g'/L	.	8gg|\L	.	.	.	4r	.	4r	.	4r	.
.	.	.	8g'/J	.	8gg|\J	.	.	.	.	.	.	.	.	.
*	*	*	*	*	*	*	*	*	*	*ij	*	*	*	*X
4GG/	.	.	4d'/	.	4dd|\	.	4GG/	o-	8G/	O-	4b\	Val-	4dd\	Val-
.	.	.	.	.	.	.	.	.	8G/	-Sten-	.	.	.	.
=33	=33	=33	=33	=33	=33	=33	=33	=33	=33	=33	=33	=33	=33	=33
2C/	.	.	(16e/LL	.	(16ee\LL	.	2C/	-Sten-	4G/	-de	4cc\	-le	4ee\	-le
*	*	*	*	*	*	*	*	*	*	*Xij	*	*Xij	*	*
.	.	.	16f/	.	16ff\	.	.	.	.	.	.	.	.	.
.	.	.	16g/	.	16gg\	.	.	.	.	.	.	.	.	.
.	.	.	16a/JJ)	.	16aa\JJ)	.	.	.	.	.	.	.	.	.
.	.	.	8g'/L	.	8gg|\L	.	.	.	4r	.	4r	.	4r	.
.	.	.	8g'/J	.	8gg|\J	.	.	.	.	.	.	.	.	.
4GG/	.	.	4d'/	.	4dd\	.	4GG/	.	4G/	o-	4b\	Val-	4dd\	Val-
=34	=34	=34	=34	=34	=34	=34	=34	=34	=34	=34	=34	=34	=34	=34
!LO:TX:t=P:problem:mixed beam	!	!	!	!	!	!	!	!	!	!	!	!	!	!
8C/L	.	.	8g/L	.	16ee\LL	.	8C\L	.	8G/L	-Sten-	8cc\L	.	8ee\L	.
.	.	.	.	.	16cc\	.	.	.	.	.	.	.	.	.
8F\J	.	.	8a/J	.	16ff\	.	8F\J	.	8A/J	.	8dd\J	.	8ff\J	.
.	.	.	.	.	16dd\JJ	.	.	.	.	.	.	.	.	.
4G\	.	.	4e/	.	4cc\	.	4G\	.	2G/	.	4cc\	.	4ee\	.
4GG/	.	.	4d/	.	4b\	.	4GG/	.	.	.	4b\	.	4dd\	.
=35	=35	=35	=35	=35	=35	=35	=35	=35	=35	=35	=35	=35	=35	=35
!	!	!	!	!	!LO:LB:g=original	!	!	!	!	!	!LO:LB:g=original	!	!	!
4C/	.	.	(16e/LL	.	(16ee\LL	.	4C/	-de	4G/	-de	4cc\	-le	4ee\	-le
.	.	.	16f/	.	16ff\	.	.	.	.	.	.	.	.	.
.	.	.	16g/	.	16gg\	.	.	.	.	.	.	.	.	.
.	.	.	16a/JJ)	.	16aa\JJ)	.	.	.	.	.	.	.	.	.
4r	.	.	8g'/L	.	8gg'\L	.	4r	.	4r	.	4r	.	4r	.
.	.	.	8g'/J	.	8gg'\J	.	.	.	.	.	.	.	.	.
*	*	*	*	*	*	*	*	*ij	*	*ij	*	*ij	*	*
4G\	.	.	4d'/	.	4dd\	.	4G\	o-	8G/	o-	4b\	Val-	4dd\	Val-
.	.	.	.	.	.	.	.	.	8G/	-Sten-	.	.	.	.
=36	=36	=36	=36	=36	=36	=36	=36	=36	=36	=36	=36	=36	=36	=36
4c\	.	.	(16e/LL	.	(16ee\LL	.	8c\	-Sten-	4G/	-de	4cc\	-le	4ee\	-le
*	*	*	*	*	*	*	*	*	*	*Xij	*	*Xij	*	*
.	.	.	16f/	.	16ff\	.	.	.	.	.	.	.	.	.
.	.	.	16g/	.	16gg\	.	8c\	-de	.	.	.	.	.	.
*	*	*	*	*	*	*	*	*Xij	*	*	*	*	*	*
.	.	.	16a/JJ)	.	16aa\JJ)	.	.	.	.	.	.	.	.	.
4r	.	.	8g'/L	.	8gg'\L	.	4r	.	4r	.	4r	.	4r	.
.	.	.	8g'/J	.	8gg'\J	.	.	.	.	.	.	.	.	.
4G\	.	.	4d/	.	4dd\	.	4G\	o-	4G/	o-	4b\	Val-	4dd\	Val-
=37	=37	=37	=37	=37	=37	=37	=37	=37	=37	=37	=37	=37	=37	=37
!	!	!	!LO:LB:g=original	!	!	!	!	!	!	!	!LO:TX:a:i:t=c	!	!	!
4c\	.	.	8e/L	.	8ee\L	.	4c\	-Sten-	4G/	-Sten-	4cc\	.	4ee\	-le
*	*	*	*	*	*	*	*	*	*	*	*	*	*	*Xij
.	.	.	16a/L	.	16ccc\L	.	.	.	.	.	.	.	.	.
.	.	.	16cc/JJ	.	16aa\JJ	.	.	.	.	.	.	.	.	.
4d\	4	.	4b/	.	4gg\	.	4d\	.	4G/	.	4b\	.	2dd\	Val-
4D/	#	.	4a/	.	4ff#X\	.	4D\	.	4F#X/	.	4a\	.	.	.
=38	=38	=38	=38	=38	=38	=38	=38	=38	=38	=38	=38	=38	=38	=38
!	!	!	!LO:TX:t=P:problem:jeden takt skreślony	!	!	!	!LO:LB:g=original	!	!	!	!	!	!LO:LB:g=original	!
4G\	.	.	8dd\L	.	16gg\LL	.	4G\	-de	4G/	-de	4b\	-le	4dd\	-le
.	.	.	.	.	16ff#X\	.	.	.	.	.	.	.	.	.
.	.	.	8dd\	.	16gg\	.	.	.	.	.	.	.	.	.
.	.	.	.	.	16aa\JJ	.	.	.	.	.	.	.	.	.
!	!	!	!	!	!LO:TX:t=P:problem:mixed beam	!	!	!	!	!	!	!	!	!
4B\	.	.	8dd\	.	8gg\L	.	4r	.	4r	.	4r	.	4r	.
.	.	.	8dd\	.	8bb\	.	.	.	.	.	.	.	.	.
4G\	.	.	8dd\	.	8b/	.	4r	.	4r	.	4r	.	4r	.
.	.	.	8b\J	.	8dd/J	.	.	.	.	.	.	.	.	.
=39	=39	=39	=39	=39	=39	=39	=39	=39	=39	=39	=39	=39	=39	=39
!	!	!	!	!	!	!	!LO:TX:a:i:t=35.	!	!LO:TX:a:i:t=35	!	!LO:TX:a:i:t=35	!	!	!
4A\	.	.	8cc\L	.	16cc\LL	.	2.r	.	2.r	.	2.r	.	2.r	.
.	.	.	.	.	16b\	.	.	.	.	.	.	.	.	.
.	.	.	8cc\	.	16cc\	.	.	.	.	.	.	.	.	.
.	.	.	.	.	16dd\JJ	.	.	.	.	.	.	.	.	.
4F#X\	.	.	8cc\	.	8cc\L	.	.	.	.	.	.	.	.	.
.	.	.	8cc\	.	8ee\	.	.	.	.	.	.	.	.	.
4F#\	.	.	8cc\	.	8a\	.	.	.	.	.	.	.	.	.
.	.	.	8a\J	.	8cc\J	.	.	.	.	.	.	.	.	.
=40	=40	=40	=40	=40	=40	=40	=40	=40	=40	=40	=40	=40	=40	=40
4G\	.	.	16b\LL	.	16b\LL	.	2.r	.	2.r	.	2.r	.	2.r	.
.	.	.	16dd\	.	16dd\	.	.	.	.	.	.	.	.	.
.	.	.	16ee\	.	16ee\	.	.	.	.	.	.	.	.	.
.	.	.	16ff#X\JJ	.	16ff#X\JJ	.	.	.	.	.	.	.	.	.
4r	.	.	16gg\LL	.	16gg\LL	.	.	.	.	.	.	.	.	.
.	.	.	16ff#\	.	16ff#\	.	.	.	.	.	.	.	.	.
.	.	.	16ee\	.	16ee\	.	.	.	.	.	.	.	.	.
.	.	.	16dd\JJ	.	16dd\JJ	.	.	.	.	.	.	.	.	.
4c\	.	.	16cc/LL	.	16ee\LL	.	.	.	.	.	.	.	.	.
.	.	.	16b/	.	16dd\	.	.	.	.	.	.	.	.	.
.	.	.	16a/	.	16cc\	.	.	.	.	.	.	.	.	.
.	.	.	16g/JJ	.	16b\JJ	.	.	.	.	.	.	.	.	.
=41	=41	=41	=41	=41	=41	=41	=41	=41	=41	=41	=41	=41	=41	=41
!	!	!	!LO:LB:g=original	!	!LO:TX:t=t	!	!	!	!	!	!	!	!LO:TX:a:i:t=Solo	!
!	!	!	!LO:TX:t=t	!	!	!	!	!	!	!	!	!	!	!
4d\	.	.	4g/	.	4b\	.	2.r	.	2.r	.	2.r	.	4r	.
4D\	.	.	4f#X/	.	4a\	.	.	.	.	.	.	.	4r	.
4r	.	.	4r	.	4r	.	.	.	.	.	.	.	8r	.
.	.	.	.	.	.	.	.	.	.	.	.	.	8dd\	O,
=42	=42	=42	=42	=42	=42	=42	=42	=42	=42	=42	=42	=42	=42	=42
!LO:TX:t=P:problem:piano lub portamente?	!	!	!	!	!	!	!	!	!	!	!	!	!	!
!LO:TX:a:i:t=Solo	!	!	!LO:TX:a:i:t=22	!	!LO:TX:a:i:t=22.	!	!	!	!	!	!	!	!	!
!	!	!LO:DY:b:t=po.	!	!	!	!	!	!	!	!	!	!	!	!
4G|\	.	p	2.r	.	2.r	.	2.r	.	2.r	.	2.r	.	8dd\L	Cle-
.	.	.	.	.	.	.	.	.	.	.	.	.	8gg\J	.
4r	.	.	.	.	.	.	.	.	.	.	.	.	8ff#X\L	.
.	.	.	.	.	.	.	.	.	.	.	.	.	8ee\J	.
4G|\	.	.	.	.	.	.	.	.	.	.	.	.	8dd\	-mens
.	.	.	.	.	.	.	.	.	.	.	.	.	8dd\	o
=43	=43	=43	=43	=43	=43	=43	=43	=43	=43	=43	=43	=43	=43	=43
4E|\	.	.	2.r	.	2.r	.	2.r	.	2.r	.	2.r	.	4dd\	pi-
4F#X|\	.	.	.	.	.	.	.	.	.	.	.	.	4cc\	.
4G|\	.	.	.	.	.	.	.	.	.	.	.	.	4b\	-a
=44	=44	=44	=44	=44	=44	=44	=44	=44	=44	=44	=44	=44	=44	=44
!LO:LB:g=original	!	!	!	!	!	!	!	!	!	!	!	!	!	!
!LO:TX:t=P:problem:specyficzny zapis tasto solo (?)	!	!	!	!	!	!	!	!	!	!	!	!	!	!
4c~\	.	.	2.r	.	2.r	.	2.r	.	2.r	.	2.r	.	8a\L	o
.	.	.	.	.	.	.	.	.	.	.	.	.	8b\J	.
4r	.	.	.	.	.	.	.	.	.	.	.	.	8cc\L	.
.	.	.	.	.	.	.	.	.	.	.	.	.	8dd\J	.
!	!	!	!	!	!	!	!	!	!	!	!	!	!LO:TX:t=P:problem:mixed beam	!
4c~\	.	.	.	.	.	.	.	.	.	.	.	.	8ee\L	.
.	.	.	.	.	.	.	.	.	.	.	.	.	8g/J	.
=45	=45	=45	=45	=45	=45	=45	=45	=45	=45	=45	=45	=45	=45	=45
!	!	!	!	!	!	!	!	!	!	!	!	!	!LO:LB:g=original	!
4d|\	.	.	2.r	.	2.r	.	2.r	.	2.r	.	2.r	.	4g/	pi-
4D|\	.	.	.	.	.	.	.	.	.	.	.	.	4f#X/	-a
4r	.	.	.	.	.	.	.	.	.	.	.	.	4dd\	o
=46	=46	=46	=46	=46	=46	=46	=46	=46	=46	=46	=46	=46	=46	=46
4G~\	.	.	2.r	.	2.r	.	2.r	.	2.r	.	2.r	.	8dd\L	dul-
.	.	.	.	.	.	.	.	.	.	.	.	.	8gg\	.
4r	.	.	.	.	.	.	.	.	.	.	.	.	8ff#X\	.
.	.	.	.	.	.	.	.	.	.	.	.	.	8ee\J	.
!LO:TX:t=P:problem:nieprezycyjny zapis tasto solo (?)	!	!	!	!	!	!	!	!	!	!	!	!	!	!
4G~\	.	.	.	.	.	.	.	.	.	.	.	.	4dd\	-cis
=47	=47	=47	=47	=47	=47	=47	=47	=47	=47	=47	=47	=47	=47	=47
2F#X~\	.	.	2.r	.	2.r	.	2.r	.	2.r	.	2.r	.	4dd\	Vir
!	!	!	!	!	!	!	!	!	!	!	!	!	!LO:TX:t=P:problem:fragment zamazany	!
.	.	.	.	.	.	.	.	.	.	.	.	.	4ryy	.
4G~\	.	.	.	.	.	.	.	.	.	.	.	.	4ryy	.
=48	=48	=48	=48	=48	=48	=48	=48	=48	=48	=48	=48	=48	=48	=48
8G\L	.	.	2.r	.	2.r	.	2.r	.	2.r	.	2.r	.	4ryy	.
8c\J	.	.	.	.	.	.	.	.	.	.	.	.	.	.
4d\	.	.	.	.	.	.	.	.	.	.	.	.	4ryy	.
4D\	.	.	.	.	.	.	.	.	.	.	.	.	4ryy	.
=49	=49	=49	=49	=49	=49	=49	=49	=49	=49	=49	=49	=49	=49	=49
2.G\	.	.	2.r	.	2.r	.	2.r	.	2.r	.	2.r	.	4ryy	.
.	.	.	.	.	.	.	.	.	.	.	.	.	4gg\	ri-
.	.	.	.	.	.	.	.	.	.	.	.	.	4ff#X\	.
=50	=50	=50	=50	=50	=50	=50	=50	=50	=50	=50	=50	=50	=50	=50
!	!	!	!	!	!	!	!	!	!	!	!	!	!LO:TX:t=P:problem:fragment do końca t. 64 zapisany inną ręką	!
2.B\	.	.	2.r	.	2.r	.	2.r	.	2.r	.	2.r	.	4ddM\m	-ri-
.	.	.	.	.	.	.	.	.	.	.	.	.	4.gg\	.
.	.	.	.	.	.	.	.	.	.	.	.	.	8ff#X\	.
=51	=51	=51	=51	=51	=51	=51	=51	=51	=51	=51	=51	=51	=51	=51
!	!	!	!	!	!	!	!	!	!	!	!	!	!LO:SIC:v:s=8qff#	!
.	.	.	.	.	.	.	.	.	.	.	.	.	8qqee/	.
2.c\	.	.	2.r	.	2.r	.	2.r	.	2.r	.	2.r	.	4ee\	.
.	.	.	.	.	.	.	.	.	.	.	.	.	2ee\	.
=52	=52	=52	=52	=52	=52	=52	=52	=52	=52	=52	=52	=52	=52	=52
2.A\	.	.	2.r	.	2.r	.	2.r	.	2.r	.	2.r	.	4ccM\m	.
.	.	.	.	.	.	.	.	.	.	.	.	.	4.ff#X\	.
.	.	.	.	.	.	.	.	.	.	.	.	.	8ee\	.
=53	=53	=53	=53	=53	=53	=53	=53	=53	=53	=53	=53	=53	=53	=53
2.B\	.	.	2.r	.	2.r	.	2.r	.	2.r	.	2.r	.	4dd\	.
.	.	.	.	.	.	.	.	.	.	.	.	.	2dd\	.
=54	=54	=54	=54	=54	=54	=54	=54	=54	=54	=54	=54	=54	=54	=54
2.G\	.	.	2.r	.	2.r	.	2.r	.	2.r	.	2.r	.	4bm\m	.
.	.	.	.	.	.	.	.	.	.	.	.	.	4.ee\	.
.	.	.	.	.	.	.	.	.	.	.	.	.	8dd\	.
=55	=55	=55	=55	=55	=55	=55	=55	=55	=55	=55	=55	=55	=55	=55
.	.	.	.	.	.	.	.	.	.	.	.	.	8qqdd/	.
2.A\	.	.	2.r	.	2.r	.	2.r	.	2.r	.	2.r	.	4cc\	.
.	.	.	.	.	.	.	.	.	.	.	.	.	2cc\	.
=56	=56	=56	=56	=56	=56	=56	=56	=56	=56	=56	=56	=56	=56	=56
!	!	!	!	!	!	!	!	!	!	!	!	!	!LO:LB:g=original	!
2.F#X\	.	.	2.r	.	2.r	.	2.r	.	2.r	.	2.r	.	4aM\m	.
.	.	.	.	.	.	.	.	.	.	.	.	.	4.dd\	.
.	.	.	.	.	.	.	.	.	.	.	.	.	8ccn\	.
=57	=57	=57	=57	=57	=57	=57	=57	=57	=57	=57	=57	=57	=57	=57
!LO:LB:g=original	!	!	!	!	!	!	!	!	!	!	!	!	!	!
4G\	.	.	2.r	.	2.r	.	2.r	.	2.r	.	2.r	.	(8b\L	.
.	.	.	.	.	.	.	.	.	.	.	.	.	8dd\J)	.
4r	.	.	.	.	.	.	.	.	.	.	.	.	(8cc\L	.
.	.	.	.	.	.	.	.	.	.	.	.	.	8b\J)	.
4B\	.	.	.	.	.	.	.	.	.	.	.	.	8a\L	.
.	.	.	.	.	.	.	.	.	.	.	.	.	8g\J	.
=58	=58	=58	=58	=58	=58	=58	=58	=58	=58	=58	=58	=58	=58	=58
4d\	.	.	2.r	.	2.r	.	2.r	.	2.r	.	2.r	.	8f#X/L	.
.	.	.	.	.	.	.	.	.	.	.	.	.	8a/J	.
4r	.	.	.	.	.	.	.	.	.	.	.	.	8cc\L	.
.	.	.	.	.	.	.	.	.	.	.	.	.	8ee\J	.
4F#X\	.	.	.	.	.	.	.	.	.	.	.	.	8dd\L	.
.	.	.	.	.	.	.	.	.	.	.	.	.	8cc\J	.
=59	=59	=59	=59	=59	=59	=59	=59	=59	=59	=59	=59	=59	=59	=59
8G\L	.	.	2.r	.	2.r	.	2.r	.	2.r	.	2.r	.	16b\LL	.
.	.	.	.	.	.	.	.	.	.	.	.	.	16dd\	.
8c\J	.	.	.	.	.	.	.	.	.	.	.	.	16cc\	.
.	.	.	.	.	.	.	.	.	.	.	.	.	16a\JJ	.
4d\	.	.	.	.	.	.	.	.	.	.	.	.	4g\	-ri-
!	!	!	!	!	!	!	!	!	!	!	!	!	!LO:TX:t=t	!
4D\	.	.	.	.	.	.	.	.	.	.	.	.	4f#X\	.
=60	=60	=60	=60	=60	=60	=60	=60	=60	=60	=60	=60	=60	=60	=60
4G\	.	.	2.r	.	2.r	.	2.r	.	2.r	.	2.r	.	4g\	-a
4G\	.	.	.	.	.	.	.	.	.	.	.	.	8r	.
.	.	.	.	.	.	.	.	.	.	.	.	.	8dd\	Ma-
!	!	!	!	!	!	!	!	!	!	!	!	!	!LO:TX:t=t	!
4B\	.	.	.	.	.	.	.	.	.	.	.	.	8.dd\L	-ri-
.	.	.	.	.	.	.	.	.	.	.	.	.	32cc\LL	.
.	.	.	.	.	.	.	.	.	.	.	.	.	32dd\JJJ	.
=61	=61	=61	=61	=61	=61	=61	=61	=61	=61	=61	=61	=61	=61	=61
!	!	!	!	!	!	!	!	!	!	!	!	!	!LO:LB:g=original	!
4c\	.	.	2.r	.	2.r	.	2.r	.	2.r	.	2.r	.	8ee\L	.
.	.	.	.	.	.	.	.	.	.	.	.	.	8dd\J	.
4r	.	.	.	.	.	.	.	.	.	.	.	.	8ee\L	.
.	.	.	.	.	.	.	.	.	.	.	.	.	8ff#X\J	.
4c\	#4| 2	.	.	.	.	.	.	.	.	.	.	.	8ff#m\mL	.
.	.	.	.	.	.	.	.	.	.	.	.	.	16ee\L	.
.	.	.	.	.	.	.	.	.	.	.	.	.	16ff#\JJ	.
=62	=62	=62	=62	=62	=62	=62	=62	=62	=62	=62	=62	=62	=62	=62
8B\L	.	.	2.r	.	2.r	.	2.r	.	2.r	.	2.r	.	8gg\L	.
8G\J	.	.	.	.	.	.	.	.	.	.	.	.	8dd\J	.
4G\	.	.	.	.	.	.	.	.	.	.	.	.	4dd\	-a
4B\	.	.	.	.	.	.	.	.	.	.	.	.	4ffn\	Ma-
=63	=63	=63	=63	=63	=63	=63	=63	=63	=63	=63	=63	=63	=63	=63
!	!	!	!	!	!LO:TX:b:i:t=V&colon; Solo.	!	!	!	!	!	!	!	!	!
.	.	.	.	.	.	.	.	.	.	.	.	.	8qqff/	.
4c\	.	.	2.r	.	2.r	.	2.r	.	2.r	.	2.r	.	8ee\L	-ri-
.	.	.	.	.	.	.	.	.	.	.	.	.	16dd\L	.
.	.	.	.	.	.	.	.	.	.	.	.	.	16cc\JJ	.
4r	.	.	.	.	.	.	.	.	.	.	.	.	4b\	.
!	!	!	!	!	!	!	!	!	!	!	!	!	!LO:TX:a:i:t=t	!
4d\	#	.	.	.	.	.	.	.	.	.	.	.	4a\	.
=64	=64	=64	=64	=64	=64	=64	=64	=64	=64	=64	=64	=64	=64	=64
!	!	!	!	!	!LO:TX:a:i:t=Solo	!	!	!	!	!	!	!	!	!
!	!	!	!	!LO:DY:b:t=po	!	!	!	!	!	!	!	!	!	!
4G\	.	.	2.d/ 2.b	p	8gg\L	.	2.r	.	2.r	.	2.r	.	4g\	-a
.	.	.	.	.	8ddd\	.	.	.	.	.	.	.	.	.
4G\	.	.	.	.	8ddd\	.	.	.	.	.	.	.	4r	.
.	.	.	.	.	8bb\	.	.	.	.	.	.	.	.	.
4G\	.	.	.	.	8bb\	.	.	.	.	.	.	.	4r	.
.	.	.	.	.	8gg\J	.	.	.	.	.	.	.	.	.
=65	=65	=65	=65	=65	=65	=65	=65	=65	=65	=65	=65	=65	=65	=65
4Fn\	4_ 2_	.	2.d/ 2.b	.	8gg\L	.	2.r	.	2.r	.	2.r	.	2.r	.
.	.	.	.	.	8ddd\	.	.	.	.	.	.	.	.	.
4F\	x x	.	.	.	8ddd\	.	.	.	.	.	.	.	.	.
.	.	.	.	.	8bb\	.	.	.	.	.	.	.	.	.
4F\	X X	.	.	.	8bb\	.	.	.	.	.	.	.	.	.
.	.	.	.	.	8gg\J	.	.	.	.	.	.	.	.	.
=66	=66	=66	=66	=66	=66	=66	=66	=66	=66	=66	=66	=66	=66	=66
!LO:LB:g=original	!	!	!	!	!	!	!	!	!	!	!	!	!	!
4E\	6_	.	2.e/ 2.cc	.	8gg\L	.	2.r	.	2.r	.	2.r	.	2.r	.
.	.	.	.	.	8eee\	.	.	.	.	.	.	.	.	.
4E\	x	.	.	.	8eee\	.	.	.	.	.	.	.	.	.
.	.	.	.	.	8ccc\	.	.	.	.	.	.	.	.	.
4E\	X	.	.	.	8ccc\	.	.	.	.	.	.	.	.	.
.	.	.	.	.	8gg\J	.	.	.	.	.	.	.	.	.
=67	=67	=67	=67	=67	=67	=67	=67	=67	=67	=67	=67	=67	=67	=67
4C/	.	.	2.e/ 2.cc	.	8gg\L	.	2.r	.	2.r	.	2.r	.	2.r	.
.	.	.	.	.	8eee\	.	.	.	.	.	.	.	.	.
4C/	.	.	.	.	8eee\	.	.	.	.	.	.	.	.	.
.	.	.	.	.	8ccc\	.	.	.	.	.	.	.	.	.
4C/	.	.	.	.	8ccc\	.	.	.	.	.	.	.	.	.
.	.	.	.	.	8gg\J	.	.	.	.	.	.	.	.	.
=68	=68	=68	=68	=68	=68	=68	=68	=68	=68	=68	=68	=68	=68	=68
!	!	!	!	!	!LO:LB:g=original	!	!	!	!	!	!	!	!	!
4BB/	.	.	2.f/ 2.dd	.	8gg\L	.	2.r	.	2.r	.	2.r	.	2.r	.
.	.	.	.	.	8fff\	.	.	.	.	.	.	.	.	.
4BB/	.	.	.	.	8fff\	.	.	.	.	.	.	.	.	.
.	.	.	.	.	8ddd\	.	.	.	.	.	.	.	.	.
4BB/	.	.	.	.	8ddd\	.	.	.	.	.	.	.	.	.
.	.	.	.	.	8gg\J	.	.	.	.	.	.	.	.	.
=69	=69	=69	=69	=69	=69	=69	=69	=69	=69	=69	=69	=69	=69	=69
4B\	.	.	2.f/ 2.dd	.	8gg\L	.	2.r	.	2.r	.	2.r	.	2.r	.
.	.	.	.	.	8fff\	.	.	.	.	.	.	.	.	.
4B\	.	.	.	.	8fff\	.	.	.	.	.	.	.	.	.
.	.	.	.	.	8ddd\	.	.	.	.	.	.	.	.	.
4B\	.	.	.	.	8ddd\	.	.	.	.	.	.	.	.	.
.	.	.	.	.	8gg\J	.	.	.	.	.	.	.	.	.
=70	=70	=70	=70	=70	=70	=70	=70	=70	=70	=70	=70	=70	=70	=70
!	!	!	!LO:LB:g=original	!	!	!	!	!	!	!	!	!	!	!
4c\	.	.	4e/ 4cc	.	8eee\L	.	2.r	.	2.r	.	2.r	.	2.r	.
.	.	.	.	.	8ccc\	.	.	.	.	.	.	.	.	.
4d\	6	.	2g/ 2gg/	.	8bb\	.	.	.	.	.	.	.	.	.
.	.	.	.	.	8gg\J	.	.	.	.	.	.	.	.	.
8e\L	6	.	.	.	8ccc\L	.	.	.	.	.	.	.	.	.
8B\J	.	.	.	.	8fff\J	.	.	.	.	.	.	.	.	.
=71	=71	=71	=71	=71	=71	=71	=71	=71	=71	=71	=71	=71	=71	=71
4c\	.	.	2.g/ 2.gg/	.	8eee\L	.	2.r	.	2.r	.	2.r	.	2.r	.
.	.	.	.	.	8ccc\	.	.	.	.	.	.	.	.	.
4d\	.	.	.	.	8bb\	.	.	.	.	.	.	.	.	.
.	.	.	.	.	8gg\J	.	.	.	.	.	.	.	.	.
4e\	.	.	.	.	4ccc\	.	.	.	.	.	.	.	.	.
=72	=72	=72	=72	=72	=72	=72	=72	=72	=72	=72	=72	=72	=72	=72
4G\	.	.	4r	.	16bb\LL	.	2.r	.	2.r	.	2.r	.	2.r	.
.	.	.	.	.	16ccc\	.	.	.	.	.	.	.	.	.
.	.	.	.	.	16ddd\	.	.	.	.	.	.	.	.	.
.	.	.	.	.	16eee\JJ	.	.	.	.	.	.	.	.	.
4B\	.	.	4ddd\	.	4fff\	.	.	.	.	.	.	.	.	.
4c\	.	.	4ccc\	.	4eee\	.	.	.	.	.	.	.	.	.
=73	=73	=73	=73	=73	=73	=73	=73	=73	=73	=73	=73	=73	=73	=73
!	!	!	!LO:TX:t=t	!	!LO:LB:g=original	!	!	!	!	!	!	!	!	!
4G\	.	.	4ccc\	.	4eeet\	.	2.r	.	2.r	.	2.r	.	2.r	.
4GG/	.	.	4bb\	.	4ddd\	.	.	.	.	.	.	.	.	.
!LO:TX:t=P:problem:specyficzny zapis tasto solo (?)	!	!	!	!	!	!	!	!	!	!	!	!	!	!
16G~\LL	.	.	4r	.	4r	.	.	.	.	.	.	.	.	.
16F~\	.	.	.	.	.	.	.	.	.	.	.	.	.	.
16E~\	.	.	.	.	.	.	.	.	.	.	.	.	.	.
16D~\JJ	.	.	.	.	.	.	.	.	.	.	.	.	.	.
=74	=74	=74	=74	=74	=74	=74	=74	=74	=74	=74	=74	=74	=74	=74
!LO:TX:a:i:t=Tutti	!	!	!LO:TX:a:i:t=Tutti	!	!LO:TX:a:i:t=Tutti	!	!	!	!	!	!LO:TX:a:i:t=Tutti	!	!LO:TX:a:i:t=Tutti	!
!	!	!	!	!	!	!LO:DY:b:t=for	!	!	!	!	!	!	!	!
!LO:LB:g=original	!	!	!	!LO:DY:b:t=for&colon;	!	!	!	!	!	!	!	!	!	!
!	!	!LO:DY:b:t=fortiſsime	!	!	!	!	!	!	!	!	!	!	!	!
16C\LL	8_ 3_	ff	4cc\	f	4ee\	f	2.c\	O	2c\	O	2.cc\	O	2ee\	O
16c\	.	.	.	.	.	.	.	.	.	.	.	.	.	.
16B\	.	.	.	.	.	.	.	.	.	.	.	.	.	.
16c\JJ	.	.	.	.	.	.	.	.	.	.	.	.	.	.
16C\LL	.	.	4cc\	.	4ee\	.	.	.	.	.	.	.	.	.
16c\	.	.	.	.	.	.	.	.	.	.	.	.	.	.
16B\	.	.	.	.	.	.	.	.	.	.	.	.	.	.
16c\JJ	X X	.	.	.	.	.	.	.	.	.	.	.	.	.
16C\LL	9 4	.	4dd\	.	4ff\	.	.	.	4d\	.	.	.	4ff\	.
16c\	.	.	.	.	.	.	.	.	.	.	.	.	.	.
16B\	.	.	.	.	.	.	.	.	.	.	.	.	.	.
16c\JJ	.	.	.	.	.	.	.	.	.	.	.	.	.	.
=75	=75	=75	=75	=75	=75	=75	=75	=75	=75	=75	=75	=75	=75	=75
16C\LL	10 5	.	4.ee\	.	4.gg\	.	2.c\	Cle-	4.e\	Cle-	2.cc\	Cle-	4.gg\	Cle-
16c\	.	.	.	.	.	.	.	.	.	.	.	.	.	.
16B\	.	.	.	.	.	.	.	.	.	.	.	.	.	.
16c\JJ	.	.	.	.	.	.	.	.	.	.	.	.	.	.
!LO:TX:t=P:problem:mixed beam	!	!	!	!	!	!	!	!	!	!	!	!	!	!
16C/LL	9 4	.	.	.	.	.	.	.	.	.	.	.	.	.
16c\	.	.	.	.	.	.	.	.	.	.	.	.	.	.
16B\	.	.	8dd\	.	8ff\	.	.	.	8d\	.	.	.	8ff\	.
16c\JJ	.	.	.	.	.	.	.	.	.	.	.	.	.	.
!LO:TX:t=P:problem:mixed beam	!	!	!	!	!	!	!	!	!	!	!	!	!	!
16C/LL	8 3	.	4cc\	.	4ee\	.	.	.	4c\	-mens	.	.	4ee\	-mens
16c\	.	.	.	.	.	.	.	.	.	.	.	.	.	.
16B\	.	.	.	.	.	.	.	.	.	.	.	.	.	.
16c\JJ	.	.	.	.	.	.	.	.	.	.	.	.	.	.
=76	=76	=76	=76	=76	=76	=76	=76	=76	=76	=76	=76	=76	=76	=76
!LO:TX:t=P:problem:mixed beam	!	!	!	!	!	!	!	!	!	!	!LO:LB:g=original	!	!	!
16C/LL	8_ 3_	.	4cc\	.	4ee\	.	2c\	-mens	4c\	O	2cc\	-mens,	4ee\	o
16c\	.	.	.	.	.	.	.	.	.	.	.	.	.	.
16B\	.	.	.	.	.	.	.	.	.	.	.	.	.	.
16c\JJ	.	.	.	.	.	.	.	.	.	.	.	.	.	.
!LO:TX:t=P:problem:mixed beam	!	!	!	!	!	!	!	!	!	!	!	!	!	!
16C/LL	.	.	8cc\L	.	8ee\L	.	.	.	8c\L	.	.	.	8ee\L	.
16c\	.	.	.	.	.	.	.	.	.	.	.	.	.	.
16B\	.	.	8ee\	.	8gg\	.	.	.	8e\J	.	.	.	8gg\J	.
16c\JJ	X X	.	.	.	.	.	.	.	.	.	.	.	.	.
!LO:TX:t=P:problem:mixed beam	!	!	!	!	!	!	!	!	!	!	!	!	!	!
16C/LL	9 4	.	8dd\	.	8ff\	.	4c\	o	8d\L	.	4cc\	o	8ff\L	.
16c\	.	.	.	.	.	.	.	.	.	.	.	.	.	.
16B\	.	.	8ff\J	.	8aa\J	.	.	.	8f\J	.	.	.	8aa\J	.
16c\JJ	.	.	.	.	.	.	.	.	.	.	.	.	.	.
=77	=77	=77	=77	=77	=77	=77	=77	=77	=77	=77	=77	=77	=77	=77
!LO:TX:t=P:problem:mixed beam	!	!	!LO:LB:g=original	!	!	!	!	!	!LO:LB:g=original	!	!	!	!	!
16C/LL	10 5	.	4.ee\	.	4.gg\	.	2.c\	pi-	4.e\	pi-	2.cc\	pi-	4.gg\	pi-
16c\	.	.	.	.	.	.	.	.	.	.	.	.	.	.
16B\	.	.	.	.	.	.	.	.	.	.	.	.	.	.
16c\JJ	.	.	.	.	.	.	.	.	.	.	.	.	.	.
!LO:TX:t=P:problem:mixed beam	!	!	!	!	!	!	!	!	!	!	!	!	!	!
16C/LL	9 4	.	.	.	.	.	.	.	.	.	.	.	.	.
16c\	.	.	.	.	.	.	.	.	.	.	.	.	.	.
16B\	.	.	8dd\	.	8ff\	.	.	.	8d\	.	.	.	8ff\	.
16c\JJ	.	.	.	.	.	.	.	.	.	.	.	.	.	.
!LO:TX:t=P:problem:mixed beam	!	!	!	!	!	!	!	!	!	!	!	!	!	!
16C/LL	8 3	.	4cc\	.	4ee\	.	.	.	4c\	-a	.	.	4ee\	-a
16c\	.	.	.	.	.	.	.	.	.	.	.	.	.	.
16B\	.	.	.	.	.	.	.	.	.	.	.	.	.	.
16c\JJ	.	.	.	.	.	.	.	.	.	.	.	.	.	.
=78	=78	=78	=78	=78	=78	=78	=78	=78	=78	=78	=78	=78	=78	=78
!LO:TX:t=P:problem:mixed beam	!	!	!	!	!	!	!	!	!	!	!	!	!	!
16C/LL	8 6	.	4aa\	.	4ccc\	.	2c\	-a	4a\	O	2cc\	-a	4cc\ 4ccc	o
16c\	.	.	.	.	.	.	.	.	.	.	.	.	.	.
16B\	.	.	.	.	.	.	.	.	.	.	.	.	.	.
16c\JJ	.	.	.	.	.	.	.	.	.	.	.	.	.	.
!LO:TX:t=P:problem:mixed beam	!	!	!	!	!	!	!	!	!	!	!	!	!	!
16C/LL	7 5	.	4gg\	.	4bb\	.	.	.	4g\	.	.	.	4b\ 4bb	.
16c\	.	.	.	.	.	.	.	.	.	.	.	.	.	.
16B\	.	.	.	.	.	.	.	.	.	.	.	.	.	.
16c\JJ	.	.	.	.	.	.	.	.	.	.	.	.	.	.
!LO:TX:t=P:problem:mixed beam	!	!	!	!	!	!	!	!	!	!	!	!	!	!
16C/LL	.	.	4ff\	.	4aa\	.	4c\	o	4f\	.	4cc\	o	4a\ 4aa	.
16c\	.	.	.	.	.	.	.	.	.	.	.	.	.	.
16B\	6 4	.	.	.	.	.	.	.	.	.	.	.	.	.
16c\JJ	.	.	.	.	.	.	.	.	.	.	.	.	.	.
=79	=79	=79	=79	=79	=79	=79	=79	=79	=79	=79	=79	=79	=79	=79
!LO:LB:g=original	!	!	!	!	!	!	!	!	!	!	!	!	!	!
!LO:TX:t=P:problem:mixed beam	!	!	!	!	!	!	!	!	!	!	!	!	!	!
16C/LL	8 3	.	4.ee\	.	4.gg\	.	4c\	dul-	4.e\	dul-	4cc\	dul-	4.g\ 4.gg	dul-
16c\	.	.	.	.	.	.	.	.	.	.	.	.	.	.
16B\	3	.	.	.	.	.	.	.	.	.	.	.	.	.
16c\JJ	.	.	.	.	.	.	.	.	.	.	.	.	.	.
!LO:TX:t=P:problem:mixed beam	!	!	!	!	!	!	!	!	!	!	!	!	!	!
16C/LL	4 2	.	.	.	.	.	4c\	-cis	.	.	4cc\	-cis	.	.
16c\	.	.	.	.	.	.	.	.	.	.	.	.	.	.
16B\	.	.	8dd\	.	8ff\	.	.	.	8d\	.	.	.	8f\ 8ff	.
16c\JJ	.	.	.	.	.	.	.	.	.	.	.	.	.	.
!LO:TX:t=P:problem:mixed beam	!	!	!	!	!	!	!	!	!	!	!	!	!	!
16C/LL	3 1	.	4cc\	.	4ee\	.	4c\	Vir-	4c\	-cis	4cc\	Vir-	4e\ 4ee	-cis
16c\	.	.	.	.	.	.	.	.	.	.	.	.	.	.
16B\	.	.	.	.	.	.	.	.	.	.	.	.	.	.
16c\JJ	.	.	.	.	.	.	.	.	.	.	.	.	.	.
=80	=80	=80	=80	=80	=80	=80	=80	=80	=80	=80	=80	=80	=80	=80
!	!	!	!	!	!LO:LB:g=original	!	!	!	!	!	!	!	!	!
2F\	.	.	8ff\L	.	8aa\L	.	2F\	-go	8f\L	Vir-	8cc\	-go	8aa\L	Vir-
.	.	.	8ee\J	.	8gg\J	.	.	.	8e\J	.	8cc\	Ma-	8gg\J	.
.	.	.	4dd\	.	4ff\	.	.	.	4d\	-go	2a\	-ri-	4ff\	-go
4F#X\	7	.	4cc\	.	4ee\	.	4F#X\	Ma-	4c\	Ma-	.	.	4ee\	Ma-
=81	=81	=81	=81	=81	=81	=81	=81	=81	=81	=81	=81	=81	=81	=81
!	!	!	!	!	!	!	!LO:LB:g=original	!	!	!	!	!	!	!
4G\	4	.	4cc\	.	4ee\	.	4G\	-ri-	4c\	-ri-	2g\	-a	4ee\	-ri-
4GG/	3	.	8b\L	.	8dd\L	.	4GG/	-a	4B\	-a	.	.	4dd\	-a
.	.	.	8b\	.	8dd\	.	.	.	.	.	.	.	.	.
4r	.	.	8cc\	.	8ee\	.	4r	.	4r	.	4r	.	4r	.
.	.	.	8dd\J	.	8ff\J	.	.	.	.	.	.	.	.	.
=82	=82	=82	=82	=82	=82	=82	=82	=82	=82	=82	=82	=82	=82	=82
!LO:TX:t=P:problem:mixed beam	!	!	!	!	!	!	!	!	!	!	!LO:LB:g=original	!	!	!
16C/LL	8 3	.	4cc\	.	4ee\	.	2.C/	O	2c\	O	2.cc\	O,	2ee\	O
16c\	.	.	.	.	.	.	.	.	.	.	.	.	.	.
16B\	.	.	.	.	.	.	.	.	.	.	.	.	.	.
16c\JJ	.	.	.	.	.	.	.	.	.	.	.	.	.	.
!LO:TX:t=P:problem:mixed beam	!	!	!	!	!	!	!	!	!	!	!	!	!	!
16C/LL	8 3	.	4cc\	.	4ee\	.	.	.	.	.	.	.	.	.
16c\	.	.	.	.	.	.	.	.	.	.	.	.	.	.
16B\	.	.	.	.	.	.	.	.	.	.	.	.	.	.
16c\JJ	.	.	.	.	.	.	.	.	.	.	.	.	.	.
!LO:TX:t=P:problem:mixed beam	!	!	!	!	!	!	!	!	!	!	!	!	!	!
16C/LL	9 4	.	4dd\	.	4ff\	.	.	.	4d\	.	.	.	4ff\	.
16c\	.	.	.	.	.	.	.	.	.	.	.	.	.	.
16B\	.	.	.	.	.	.	.	.	.	.	.	.	.	.
16c\JJ	.	.	.	.	.	.	.	.	.	.	.	.	.	.
=83	=83	=83	=83	=83	=83	=83	=83	=83	=83	=83	=83	=83	=83	=83
!LO:TX:t=P:problem:mixed beam	!	!	!	!	!	!	!	!	!LO:LB:g=original	!	!	!	!	!
16C/LL	10 5	.	4.ee\	.	4.gg\	.	2.C/	Cle-	4.e\	Cle-	2.cc\	Cle-	4.gg\	Cle-
16c\	.	.	.	.	.	.	.	.	.	.	.	.	.	.
16B\	.	.	.	.	.	.	.	.	.	.	.	.	.	.
16c\JJ	.	.	.	.	.	.	.	.	.	.	.	.	.	.
!LO:TX:t=P:problem:mixed beam	!	!	!	!	!	!	!	!	!	!	!	!	!	!
16C/LL	9 4	.	.	.	.	.	.	.	.	.	.	.	.	.
16c\	.	.	.	.	.	.	.	.	.	.	.	.	.	.
16B\	.	.	8dd\	.	8ff\	.	.	.	8d\	.	.	.	8ff\	.
16c\JJ	.	.	.	.	.	.	.	.	.	.	.	.	.	.
!LO:TX:t=P:problem:mixed beam	!	!	!	!	!	!	!	!	!	!	!	!	!	!
16C/LL	8 3	.	4cc\	.	4ee\	.	.	.	4c\	-mens	.	.	4ee\	-mens
16c\	.	.	.	.	.	.	.	.	.	.	.	.	.	.
16B\	.	.	.	.	.	.	.	.	.	.	.	.	.	.
16c\JJ	.	.	.	.	.	.	.	.	.	.	.	.	.	.
=84	=84	=84	=84	=84	=84	=84	=84	=84	=84	=84	=84	=84	=84	=84
!LO:TX:t=P:problem:mixed beam	!	!	!LO:LB:g=original	!	!	!	!LO:N:vis=2.	!	!	!	!	!	!LO:LB:g=original	!
16C/LL	8 3	.	4cc\	.	4ee\	.	2C/	-mens	4c\	O	2cc\	-mens	4ee\	O
16c\	.	.	.	.	.	.	.	.	.	.	.	.	.	.
16B\	.	.	.	.	.	.	.	.	.	.	.	.	.	.
16c\JJ	.	.	.	.	.	.	.	.	.	.	.	.	.	.
!LO:TX:t=P:problem:mixed beam	!	!	!	!	!	!	!	!	!	!	!	!	!	!
16C/LL	8 3	.	8cc\L	.	8ee\L	.	.	.	8c\L	.	.	.	8ee\L	.
16c\	.	.	.	.	.	.	.	.	.	.	.	.	.	.
16B\	.	.	8ee\	.	8gg\	.	.	.	8e\J	.	.	.	8gg\	.
16c\JJ	.	.	.	.	.	.	.	.	.	.	.	.	.	.
!LO:TX:t=P:problem:mixed beam	!	!	!	!	!	!	!	!	!	!	!	!	!	!
16C/LL	.	.	8dd\	.	8ff\	.	4C/	O	8d\L	.	4cc\	o	8ff\	.
16c\	9 4	.	.	.	.	.	.	.	.	.	.	.	.	.
16B\	.	.	8ff\J	.	8aa\J	.	.	.	8f\J	.	.	.	8aa\J	.
16c\JJ	.	.	.	.	.	.	.	.	.	.	.	.	.	.
=85	=85	=85	=85	=85	=85	=85	=85	=85	=85	=85	=85	=85	=85	=85
!LO:LB:g=original	!	!	!	!	!	!	!	!	!	!	!	!	!	!
!LO:TX:t=P:problem:mixed beam	!	!	!	!	!	!	!	!	!	!	!	!	!	!
16C/LL	10 5	.	4.ee\	.	4.gg\	.	2.C/	pi-	4.e\	pi-	2.cc\	pi-	4.gg\	pi-
16c\	.	.	.	.	.	.	.	.	.	.	.	.	.	.
16B\	.	.	.	.	.	.	.	.	.	.	.	.	.	.
16c\JJ	.	.	.	.	.	.	.	.	.	.	.	.	.	.
!LO:TX:t=P:problem:mixed beam	!	!	!	!	!	!	!	!	!	!	!	!	!	!
16C/LL	9 4	.	.	.	.	.	.	.	.	.	.	.	.	.
16c\	.	.	.	.	.	.	.	.	.	.	.	.	.	.
16B\	.	.	8dd\	.	8ff\	.	.	.	8d\	.	.	.	8ff\	.
16c\JJ	.	.	.	.	.	.	.	.	.	.	.	.	.	.
!LO:TX:t=P:problem:mixed beam	!	!	!	!	!	!	!	!	!	!	!	!	!	!
16C/LL	8 3	.	4cc\	.	4ee\	.	.	.	4c\	-a	.	.	4ee\	-a
16c\	.	.	.	.	.	.	.	.	.	.	.	.	.	.
16B\	.	.	.	.	.	.	.	.	.	.	.	.	.	.
16c\JJ	.	.	.	.	.	.	.	.	.	.	.	.	.	.
=86	=86	=86	=86	=86	=86	=86	=86	=86	=86	=86	=86	=86	=86	=86
!LO:TX:t=P:problem:mixed beam	!	!	!	!	!	!	!	!	!	!	!	!	!	!
16C/LL	8 6	.	4aa\	.	4ccc\	.	2C/	-a	4a\	O	2cc\	-a	4cc\ 4ccc	o
16c\	.	.	.	.	.	.	.	.	.	.	.	.	.	.
16B\	.	.	.	.	.	.	.	.	.	.	.	.	.	.
16c\JJ	.	.	.	.	.	.	.	.	.	.	.	.	.	.
!LO:TX:t=P:problem:mixed beam	!	!	!	!	!	!	!	!	!	!	!	!	!	!
16C/LL	7 5	.	4gg\	.	4bb\	.	.	.	4g\	.	.	.	4b\ 4bb	.
16c\	.	.	.	.	.	.	.	.	.	.	.	.	.	.
16B\	.	.	.	.	.	.	.	.	.	.	.	.	.	.
16c\JJ	.	.	.	.	.	.	.	.	.	.	.	.	.	.
!LO:TX:t=P:problem:mixed beam	!	!	!	!	!	!	!	!	!	!	!	!	!	!
16C/LL	6 4	.	4ff\	.	4aa\	.	4C/	o	4f\	.	4cc\	o	4a\ 4aa	dul-
16c\	.	.	.	.	.	.	.	.	.	.	.	.	.	.
16B\	.	.	.	.	.	.	.	.	.	.	.	.	.	.
16c\JJ	.	.	.	.	.	.	.	.	.	.	.	.	.	.
=87	=87	=87	=87	=87	=87	=87	=87	=87	=87	=87	=87	=87	=87	=87
!LO:TX:t=P:problem:mixed beam	!	!	!	!	!LO:LB:g=original	!	!	!	!	!	!	!	!	!
16C/LL	5 3	.	4.ee\	.	4.gg\	.	4C/	dul-	4.e\	dul-	4cc\	dul-	4.gg\	-cis
16c\	.	.	.	.	.	.	.	.	.	.	.	.	.	.
16B\	.	.	.	.	.	.	.	.	.	.	.	.	.	.
16c\JJ	.	.	.	.	.	.	.	.	.	.	.	.	.	.
!LO:TX:t=P:problem:mixed beam	!	!	!	!	!	!	!	!	!	!	!	!	!	!
16C/LL	4 2	.	.	.	.	.	4C/	-cis	.	.	4cc\	-cis	.	.
16c\	.	.	.	.	.	.	.	.	.	.	.	.	.	.
16B\	.	.	8dd\L	.	8ff\L	.	.	.	8d\	.	.	.	8ff\L	Vir-
16c\JJ	.	.	.	.	.	.	.	.	.	.	.	.	.	.
!LO:TX:t=P:problem:mixed beam	!	!	!	!	!	!	!	!	!	!	!	!	!	!
16C/LL	3 1	.	8cc\	.	8ee\	.	4C/	Vir-	8c\	-cis	4cc\	Vir-	8ee\	-go
16c\	.	.	.	.	.	.	.	.	.	.	.	.	.	.
16B\	.	.	8ee\J	.	8gg\J	.	.	.	8e\	Vir-	.	.	8gg\J	.
16c\JJ	.	.	.	.	.	.	.	.	.	.	.	.	.	.
=88	=88	=88	=88	=88	=88	=88	=88	=88	=88	=88	=88	=88	=88	=88
8E\L	.	.	8ee\L	.	8gg\L	.	8E\	-go	8e\	-go	8g\	-go	8gg\L	Ma-
8F\J	.	.	8dd\J	.	8ff\J	.	8F\	Ma-	8d\	Ma-	8a\	Ma-	8ff\J	.
!	!	!	!	!	!	!	!	!	!LO:LB:g=original	!	!	!	!	!
4G\	.	.	4cc\	.	4ee\	.	4G\	-ri-	4c\	-ri-	2g\	-ri-	4ee\	-ri-
4GG/	.	.	4b\	.	4dd\	.	4GG/	.	4B\	.	.	.	4dd\	.
=89	=89	=89	=89	=89	=89	=89	=89	=89	=89	=89	=89	=89	=89	=89
*	*	*	*^	*	*^	*	*	*	*	*	*	*	*	*
4C/	.	.	4ee/	4cc\	.	4ee/	2.g\	.	2C/	-a	2c\	-a	2g\	-a	4ee\	-a
4C/	.	.	4ee/	4cc\	.	4ee/	.	.	.	.	.	.	.	.	2ee\	Ma-
4C/	.	.	4ee/	4cc\	.	4ee/	.	.	4C/	Ma-	4c\	Ma-	4g\	Ma-	.	.
=90	=90	=90	=90	=90	=90	=90	=90	=90	=90	=90	=90	=90	=90	=90	=90	=90
4G\	.	.	2.ff/	2.dd\	.	2.ff/	2.g\	.	2.G\	-ri-	2.d\	-ri-	2.b\	-ri-	2.ff\	-ri-
4G\	.	.	.	.	.	.	.	.	.	.	.	.	.	.	.	.
4G\	.	.	.	.	.	.	.	.	.	.	.	.	.	.	.	.
=91	=91	=91	=91	=91	=91	=91	=91	=91	=91	=91	=91	=91	=91	=91	=91	=91
!LO:LB:g=original	!	!	!LO:LB:g=original	!LO:LB:g=original	!	!	!	!	!	!	!	!	!LO:N:vis=2.	!	!	!
4C/	.	.	4ee/	4cc\	.	4ee/	2.g\	.	2C/	-a	2c\	-a	2g\	-a	2.ee\	.
4C/	.	.	4ee/	4cc\	.	4ee/	.	.	.	.	.	.	.	.	.	.
4C/	.	.	4ee/	4cc\	.	4ee/	.	.	4C/	Ma-	4c\	Ma-	4g\	Ma-	.	.
=92	=92	=92	=92	=92	=92	=92	=92	=92	=92	=92	=92	=92	=92	=92	=92	=92
4GG/	.	.	2.ff/	2.dd\	.	2.dd/	2.g\	.	2.GG/	-ri-	2.B\	-ri-	2.g\	-ri-	2.dd\	.
4GG/	.	.	.	.	.	.	.	.	.	.	.	.	.	.	.	.
4GG/	.	.	.	.	.	.	.	.	.	.	.	.	.	.	.	.
*	*	*	*	*	*	*v	*v	*	*	*	*	*	*	*	*	*
=93	=93	=93	=93	=93	=93	=93	=93	=93	=93	=93	=93	=93	=93	=93	=93
!	!	!	!LO:TX:t=P:problem:mixed beam	!	!	!	!	!	!	!	!	!	!	!	!
!	!	!	!	!	!	!	!LO:DY:b:t=fortiſsime	!	!	!	!	!	!	!	!
8C~/L	.	.	8ee/	8cc\L	.	8cc/L	ff	4C/	-a.	4c\	-a.	4g\	-a	4ee\	a
16C~/L	.	.	8ryy	16c'/L	.	16c'/L	.	.	.	.	.	.	.	.	.
16C~/JJ	.	.	.	16c'/JJ	.	16c'/JJ	.	.	.	.	.	.	.	.	.
8E|\L	.	.	4ryy	8e'/L	.	8e'/L	.	4r	.	4r	.	4r	.	4r	.
8C|\	.	.	.	8c'/	.	8c'/	.	.	.	.	.	.	.	.	.
8G|\	.	.	4ryy	8g'/	.	8g'/	.	4r	.	4r	.	4r	.	4r	.
8E|\J	.	.	.	8e'/J	.	8e'/J	.	.	.	.	.	.	.	.	.
*	*	*	*v	*v	*	*	*	*	*	*	*	*	*	*	*
=94	=94	=94	=94	=94	=94	=94	=94	=94	=94	=94	=94	=94	=94	=94
!	!	!	!	!	!LO:LB:g=original	!	!	!	!	!	!	!	!	!
8c|\L	.	.	8cc'\L	.	8cc|\L	.	2.r	.	2.r	.	2.r	.	2.r	.
16c|\L	.	.	16cc'\L	.	16cc'\L	.	.	.	.	.	.	.	.	.
16c|\JJ	.	.	16cc'\JJ	.	16cc'\JJ	.	.	.	.	.	.	.	.	.
8e|\L	.	.	8ee'\L	.	8ee|\L	.	.	.	.	.	.	.	.	.
8c|\	.	.	8cc'\	.	8cc|\	.	.	.	.	.	.	.	.	.
8g|\	.	.	8gg'\	.	8gg|\	.	.	.	.	.	.	.	.	.
8e|\J	.	.	8ee'\J	.	8ee|\J	.	.	.	.	.	.	.	.	.
=95	=95	=95	=95	=95	=95	=95	=95	=95	=95	=95	=95	=95	=95	=95
*	*	*	*^	*	*	*	*	*	*	*	*	*	*	*
4c|\	.	.	8ee/L	8cc\L	.	8ee\L 8ccc	.	2.r	.	2.r	.	2.r	.	2.r	.
.	.	.	16ee/L	16cc\L	.	16ee\L 16ccc	.	.	.	.	.	.	.	.	.
.	.	.	16ee/JJ	16cc\JJ	.	16ee\JJ 16ccc	.	.	.	.	.	.	.	.	.
4c\	.	.	8ee/L	8cc\L	.	8ee\L 8ccc	.	.	.	.	.	.	.	.	.
.	.	.	8ee/	8cc\	.	8ee\J 8ccc	.	.	.	.	.	.	.	.	.
4c\	.	.	8ee/	8cc\	.	8ee\L 8ccc	.	.	.	.	.	.	.	.	.
.	.	.	8ee/J	8cc\J	.	8ee\J 8ccc	.	.	.	.	.	.	.	.	.
=96	=96	=96	=96	=96	=96	=96	=96	=96	=96	=96	=96	=96	=96	=96	=96
!	!	!	!	!	!	!	!	!	!	!LO:TX:b:i:t=finis	!	!LO:TX:b:i:t=finis	!	!	!
4c\	.	.	4ee/	4cc\	.	4ee\ 4ccc	.	2.r	.	2.r	.	2.r	.	2.r	.
4r	.	.	4r	4ryy	.	4r	.	.	.	.	.	.	.	.	.
!	!	!	!LO:TX:b:i:t=finis	!	!	!	!	!	!	!	!	!	!	!	!
4r	.	.	4r	4ryy	.	4r	.	.	.	.	.	.	.	.	.
*	*	*	*v	*v	*	*	*	*	*	*	*	*	*	*	*
==	==	==	==	==	==	==	==	==	==	==	==	==	==	==
*-	*-	*-	*-	*-	*-	*-	*-	*-	*-	*-	*-	*-	*-	*-
!!!system-decoration: [(s1,s2,s3,s4)][(s5,s6)]s7
!!!AIN: 1 alto 1 bass 1 organ 1 soprn 1 tenor 2 violn
!!!ENC: Krzysztof Stępień
!!!END: 2020-09-04
!!!ENC: Kamil Watkowski
!!!END: 2021-11-29
!!!RDF**kern: > = above
!!!RDF**kern: < = below
!!!RDF**kern: | = vertical stroke
